Sources/FrostedUI/Resources/Icons.xcassets/stickerFilled24.imageset/sticker-filled-24.svg

<svg width="24" height="24" viewBox="0 0 24 24" fill="none" xmlns="http://www.w3.org/2000/svg" data-fui-icon="true">
  <g clip-path="url(#clip0_6194_390)">
    <path
      d="M14.4057 0.292013C17.9571 -0.527676 21.5007 1.68658 22.3208 5.23789L22.9537 7.9795C23.0266 8.2952 22.8297 8.61021 22.514 8.6831L16.3954 10.0957L16.1391 10.1619C13.5273 10.906 11.9303 13.5767 12.5481 16.2527L13.9607 22.3713C14.0336 22.6871 13.8367 23.0021 13.521 23.0749L10.7794 23.7079C7.22801 24.5276 3.68446 22.3133 2.86436 18.762L0.884614 10.1868C0.0649247 6.63541 2.27918 3.09186 5.83049 2.27176L14.4057 0.292013ZM22.557 10.2126C22.9317 10.1261 23.2872 10.4181 23.2555 10.8015C22.8676 15.4898 20.2335 19.7052 16.1897 22.1091C15.859 22.3057 15.4408 22.1142 15.3542 21.7394L14.0096 15.9153C13.5582 13.9601 14.7777 12.0086 16.7329 11.5572L22.557 10.2126Z"
      fill="currentColor"
    />
  </g>
  <defs>
    <clipPath id="clip0_6194_390"><path fill="currentColor" d="M0 0H24V24H0z" /></clipPath>
  </defs>
</svg>

<svg xmlns="http://www.w3.org/2000/svg" width="24" height="24" fill="none" data-fui-icon="true" viewBox="0 0 24 24"><g clip-path="url(#a)"><path fill="currentColor" d="M14.406.292a6.6 6.6 0 0 1 7.915 4.946l.633 2.741a.587.587 0 0 1-.44.704l-6.119 1.413-.256.066a5.134 5.134 0 0 0-3.59 6.09l1.412 6.12a.587.587 0 0 1-.44.703l-2.742.633a6.6 6.6 0 0 1-7.915-4.946l-1.98-8.575A6.6 6.6 0 0 1 5.83 2.272zm8.151 9.92a.564.564 0 0 1 .699.59 14.56 14.56 0 0 1-7.066 11.307.564.564 0 0 1-.836-.37l-1.344-5.824a3.634 3.634 0 0 1 2.723-4.358z"/></g><defs><clipPath id="a"><path fill="currentColor" d="M0 0h24v24H0z"/></clipPath></defs></svg>
